X:720
T:Aquella Panadera
C:Tradicional
S:Música Tradicional Asturiana, (C) Tello & Tito. Asturies, 2001.
S:http://pagina.de/MusTradAst <telloytito@asturies.org>
A:Asturies
Z:Asturias, canciones
M:3/8
L:1/8
Q:3/8=80
K:C
|: d2 d|d_ed|cBd|[1 cBc|d3 :|[2 cBA|G3|
|B2 d|cBA|G3|B2 c|d_ed|cBd|cBA|G3|


